public/piece/Intl_Wooden_3D/0KY.svg

<svg xmlns="http://www.w3.org/2000/svg" xmlns:xlink="http://www.w3.org/1999/xlink" width="52.157" height="60"><defs><filter id="c"><feGaussianBlur in="SourceAlpha" result="blur" stdDeviation="2"/><feOffset result="offsetBlur" dx="2" dy="2"/><feBlend in="SourceGraphic" in2="offsetBlur"/></filter><linearGradient id="a"><stop offset="0" stop-color="#dfb459"/><stop offset=".042" stop-color="#dead54"/><stop offset=".093" stop-color="#e1b85f"/><stop offset=".165" stop-color="#dba84d"/><stop offset=".305" stop-color="#dfb765"/><stop offset=".539" stop-color="#d8a94e"/><stop offset=".586" stop-color="#d5ab53"/><stop offset=".84" stop-color="#e0bf6e"/><stop offset=".924" stop-color="#daae52"/><stop offset=".962" stop-color="#d9af57"/><stop offset="1" stop-color="#e1b663"/></linearGradient><linearGradient xlink:href="#a" id="b" x1="287.356" y1="53.513" x2="301.335" y2="53.513" gradientUnits="userSpaceOnUse" spreadMethod="repeat"/><linearGradient xlink:href="#a" id="d" x1="214.813" y1="1248.905" x2="366.351" y2="1248.905" gradientUnits="userSpaceOnUse" spreadMethod="repeat"/></defs><g transform="translate(35.989 2.874) scale(.91071)" filter="url(#c)" fill="url(#b)"><path d="M-10.368 7.618c-4.319 1-8.69 2.09-12.837 3.61l-7.052 44.45H9.678l-6.79-44.163-.594-1.383.197 1.265c-4.285-1.259-8.575-2.522-12.859-3.779z" fill="#826015"/><path d="M-10.96 6.237c-4.319 1-8.69 2.088-12.838 3.608l-7.051 44.45H9.085l-6.79-44.162c-4.418-1.298-8.839-2.6-13.255-3.896z"/></g><path d="M7.894 52.322l.54 1.258h36.368l-.54-1.258z" fill="#654b13"/><g stroke="#000" stroke-width="4.938"><path d="M25.355 50.35V24.756h1.447V50.35z" stroke-width=".47607257999999997"/><path d="M373.444 1325.142l-13.45-8.57 2.65-111.341 16.688-28.568 17.542 27.755 2.373 111.247-13.382 9.224z" fill="url(#d)" stroke-width="8.694" transform="matrix(.09641 0 0 .09641 -10.524 -102.513)"/><path d="M26.07 11.354v10.134l1.594 1.265M26.07 21.488l-1.573 1.397" fill="none" stroke-width=".43538756"/></g><path d="M18.141 40.877h15.875v1.446H18.141z" stroke="#000" stroke-width=".47570509"/><path d="M26.078 32.452a9.148 9.148 0 0 0-9.147 9.148 9.148 9.148 0 0 0 9.147 9.148 9.148 9.148 0 0 0 9.148-9.148 9.148 9.148 0 0 0-9.148-9.148zm0 1.995A7.152 7.152 0 0 1 33.23 41.6a7.152 7.152 0 0 1-7.152 7.152 7.152 7.152 0 0 1-7.153-7.152 7.152 7.152 0 0 1 7.153-7.153z"/><path d="M19.955 46.701L31.18 35.476l1.022 1.023-11.225 11.225z" stroke="#000" stroke-width=".47570509"/><path d="M20.977 35.476l11.225 11.225-1.022 1.023-11.225-11.225z" stroke="#000" stroke-width=".47570509"/></svg>

<?xml version="1.0" encoding="UTF-8" standalone="no"?>
<svg
   xmlns:dc="http://purl.org/dc/elements/1.1/"
   xmlns:cc="http://creativecommons.org/ns#"
   xmlns:rdf="http://www.w3.org/1999/02/22-rdf-syntax-ns#"
   xmlns:svg="http://www.w3.org/2000/svg"
   xmlns="http://www.w3.org/2000/svg"
   xmlns:xlink="http://www.w3.org/1999/xlink"
   xmlns:sodipodi="http://sodipodi.sourceforge.net/DTD/sodipodi-0.dtd"
   xmlns:inkscape="http://www.inkscape.org/namespaces/inkscape"
   width="60"
   height="60"
   version="1.1"
   id="svg60"
   sodipodi:docname="0KY.svg"
   inkscape:version="1.0.1 (3bc2e813f5, 2020-09-07)">
  <metadata
     id="metadata64">
    <rdf:RDF>
      <cc:Work
         rdf:about="">
        <dc:format>image/svg+xml</dc:format>
        <dc:type
           rdf:resource="http://purl.org/dc/dcmitype/StillImage" />
      </cc:Work>
    </rdf:RDF>
  </metadata>
  <sodipodi:namedview
     pagecolor="#ffffff"
     bordercolor="#666666"
     borderopacity="1"
     objecttolerance="10"
     gridtolerance="10"
     guidetolerance="10"
     inkscape:pageopacity="0"
     inkscape:pageshadow="2"
     inkscape:window-width="1366"
     inkscape:window-height="711"
     id="namedview62"
     showgrid="false"
     inkscape:zoom="3.2173359"
     inkscape:cx="20.557237"
     inkscape:cy="72.012147"
     inkscape:window-x="0"
     inkscape:window-y="0"
     inkscape:window-maximized="1"
     inkscape:current-layer="svg60" />
  <defs
     id="defs34">
    <filter
       id="c">
      <feGaussianBlur
         in="SourceAlpha"
         result="blur"
         stdDeviation="2"
         id="feGaussianBlur2" />
      <feOffset
         result="offsetBlur"
         dx="2"
         dy="2"
         id="feOffset4" />
      <feBlend
         in="SourceGraphic"
         in2="offsetBlur"
         id="feBlend6" />
    </filter>
    <linearGradient
       id="a">
      <stop
         offset="0"
         stop-color="#dfb459"
         id="stop9" />
      <stop
         offset=".042"
         stop-color="#dead54"
         id="stop11" />
      <stop
         offset=".093"
         stop-color="#e1b85f"
         id="stop13" />
      <stop
         offset=".165"
         stop-color="#dba84d"
         id="stop15" />
      <stop
         offset=".305"
         stop-color="#dfb765"
         id="stop17" />
      <stop
         offset=".539"
         stop-color="#d8a94e"
         id="stop19" />
      <stop
         offset=".586"
         stop-color="#d5ab53"
         id="stop21" />
      <stop
         offset=".84"
         stop-color="#e0bf6e"
         id="stop23" />
      <stop
         offset=".924"
         stop-color="#daae52"
         id="stop25" />
      <stop
         offset=".962"
         stop-color="#d9af57"
         id="stop27" />
      <stop
         offset="1"
         stop-color="#e1b663"
         id="stop29" />
    </linearGradient>
    <linearGradient
       xlink:href="#a"
       id="b"
       x1="287.356"
       y1="53.513"
       x2="301.335"
       y2="53.513"
       gradientUnits="userSpaceOnUse"
       spreadMethod="repeat" />
    <linearGradient
       xlink:href="#a"
       id="d"
       x1="214.813"
       y1="1248.905"
       x2="366.351"
       y2="1248.905"
       gradientUnits="userSpaceOnUse"
       spreadMethod="repeat" />
    <linearGradient
       inkscape:collect="always"
       xlink:href="#a"
       id="linearGradient899"
       gradientUnits="userSpaceOnUse"
       x1="287.356"
       y1="53.513"
       x2="301.335"
       y2="53.513"
       spreadMethod="repeat" />
  </defs>
  <g
     transform="matrix(0.91071,0,0,0.91071,39.640321,2.874)"
     filter="url(#c)"
     fill="url(#b)"
     id="g40"
     style="fill:url(#b)">
    <path
       d="m -10.368,7.618 c -4.319,1 -8.69,2.09 -12.837,3.61 l -7.052,44.45 H 9.678 L 2.888,11.515 2.294,10.132 2.491,11.397 C -1.794,10.138 -6.084,8.875 -10.368,7.618 Z"
       fill="#826015"
       id="path36" />
    <path
       d="m -10.96,6.237 c -4.319,1 -8.69,2.088 -12.838,3.608 l -7.051,44.45 H 9.085 L 2.295,10.133 C -2.123,8.835 -6.544,7.533 -10.96,6.237 Z"
       id="path38"
       style="fill:url(#linearGradient899)" />
  </g>
  <path
     d="m 11.546,52.322 0.54,1.258 h 36.368 l -0.54,-1.258 z"
     fill="#654b13"
     id="path42" />
  <g
     id="g897"
     transform="translate(3.9215)">
    <g
       stroke="#000000"
       stroke-width="4.938"
       id="g50">
      <path
         d="M 25.355,50.35 V 24.756 h 1.447 V 50.35 Z"
         stroke-width="0.476073"
         id="path44" />
      <path
         d="m 373.444,1325.142 -13.45,-8.57 2.65,-111.341 16.688,-28.568 17.542,27.755 2.373,111.247 -13.382,9.224 z"
         fill="url(#d)"
         stroke-width="8.694"
         transform="matrix(0.09641,0,0,0.09641,-10.524,-102.513)"
         id="path46"
         style="fill:url(#d)" />
      <path
         d="m 26.07,11.354 v 10.134 l 1.594,1.265 m -1.594,-1.265 -1.573,1.397"
         fill="none"
         stroke-width="0.435388"
         id="path48" />
    </g>
    <path
       d="m 18.141,40.877 h 15.875 v 1.446 H 18.141 Z"
       stroke="#000000"
       stroke-width="0.475705"
       id="path52" />
    <path
       d="m 26.078,32.452 a 9.148,9.148 0 0 0 -9.147,9.148 9.148,9.148 0 0 0 9.147,9.148 9.148,9.148 0 0 0 9.148,-9.148 9.148,9.148 0 0 0 -9.148,-9.148 z m 0,1.995 A 7.152,7.152 0 0 1 33.23,41.6 7.152,7.152 0 0 1 26.078,48.752 7.152,7.152 0 0 1 18.925,41.6 7.152,7.152 0 0 1 26.078,34.447 Z"
       id="path54" />
    <path
       d="M 19.955,46.701 31.18,35.476 32.202,36.499 20.977,47.724 Z"
       stroke="#000000"
       stroke-width="0.475705"
       id="path56" />
    <path
       d="M 20.977,35.476 32.202,46.701 31.18,47.724 19.955,36.499 Z"
       stroke="#000000"
       stroke-width="0.475705"
       id="path58" />
  </g>
</svg>
